svg/300/outlined/perm_camera_mic-fill.svg

<svg xmlns="http://www.w3.org/2000/svg" width="48" height="48" viewBox="0 -960 960 960"><path d="M157.694-140.001q-23.616 0-40.654-17.039-17.039-17.038-17.039-40.654V-677.23q0-23.615 17.039-40.653 17.038-17.039 40.654-17.039h137.384l73.384-85.077h223.076l73.384 85.077h137.384q23.616 0 40.654 17.039 17.039 17.038 17.039 40.653v479.536q0 23.616-17.039 40.654-17.038 17.039-40.654 17.039h-300.23V-282.54q81.615-9.461 137.231-68.538 55.615-59.077 55.615-141.076h-45.384q0 69.23-49.846 116.846Q549.846-327.693 480-327.693q-70.461 0-120.307-47.615-49.847-47.616-49.847-116.846h-45.383q0 81.999 55.115 141.076t137.115 68.538v142.539H157.694ZM480-437.694q22.384 0 38.422-16.038 16.039-16.038 16.039-38.422v-170.154q0-22.384-16.039-38.422-16.038-16.039-38.422-16.039-23 0-39.038 15.731-16.038 15.731-16.038 38.73v170.154q0 22.999 16.038 38.73Q457-437.694 480-437.694Z"/></svg>

<svg xmlns="http://www.w3.org/2000/svg" width="48" height="48" viewBox="0 -960 960 960"><path d="M157.69-140q-23.61 0-40.65-17.04T100-197.69v-479.54q0-23.61 17.04-40.65t40.65-17.04h137.39L368.46-820h223.08l73.38 85.08h137.39q23.61 0 40.65 17.04T860-677.23v479.54q0 23.61-17.04 40.65T802.31-140H502.08v-142.54q81.61-9.46 137.23-68.54 55.61-59.07 55.61-141.07h-45.38q0 69.23-49.85 116.84-49.84 47.62-119.69 47.62-70.46 0-120.31-47.62-49.84-47.61-49.84-116.84h-45.39q0 82 55.12 141.07 55.11 59.08 137.11 68.54V-140h-299ZM480-437.69q22.38 0 38.42-16.04 16.04-16.04 16.04-38.42v-170.16q0-22.38-16.04-38.42-16.04-16.04-38.42-16.04-23 0-39.04 15.73t-16.04 38.73v170.16q0 23 16.04 38.73Q457-437.69 480-437.69Z"/></svg>
